icons/calendar-help.svg

<svg xmlns="http://www.w3.org/2000/svg" width="24" height="24" viewBox="0 0 24 24">
  <path d="M22,10 L22,20 C22,21.6568542 20.6568542,23 19,23 L5,23 C3.34314575,23 2,21.6568542 2,20 L2,10 L22,10 Z M12.0001686,18 C11.4478886,18 11.0001686,18.4477 11.0001686,19 C11.0001686,19.5523 11.4478886,20 12.0001686,20 C12.5524586,20 13.0001686,19.5523 13.0001686,19 C13.0001686,18.4477 12.5524586,18 12.0001686,18 Z M12.0001686,12 C11.3689286,12 10.8456386,12.15996 10.4278886,12.43846 C10.0148386,12.71383 9.74882858,13.07562 9.57934858,13.41459 C9.39409858,13.78507 9.54426858,14.23558 9.91475858,14.42082 C10.2852386,14.60606 10.7357486,14.45589 10.9209886,14.08541 C11.0014986,13.92438 11.1104886,13.78617 11.2599386,13.68654 C11.4046986,13.59004 11.6314086,13.5 12.0001686,13.5 C12.2799186,13.5 12.5530786,13.58656 12.7376686,13.725 C12.9022286,13.84842 13.0001686,14.01009 13.0001686,14.25 C13.0001686,14.42662 12.9593586,14.51381 12.9229986,14.56835 C12.8776486,14.63639 12.7994086,14.71162 12.6466286,14.81349 C12.5702386,14.86441 12.4880486,14.9139 12.3877086,14.97411 L12.3815586,14.9778 C12.2878586,15.03402 12.1772086,15.10041 12.0684786,15.1729 C11.8462486,15.32107 11.5807386,15.52712 11.3760986,15.83412 C11.1463586,16.17878 11.2395186,16.64442 11.5841786,16.87417 C11.9288386,17.10391 12.3944886,17.01075 12.6242286,16.66609 C12.6695886,16.59803 12.7478286,16.52279 12.9005986,16.42093 C12.9769786,16.37001 13.0591686,16.32052 13.1594986,16.26032 L13.1657686,16.25656 C13.2594286,16.20036 13.3700286,16.134 13.4787086,16.06154 C13.7009186,15.91339 13.9664386,15.70737 14.1710686,15.4004 C14.3847686,15.07994 14.5001686,14.69838 14.5001686,14.25 C14.5001686,13.48991 14.1397686,12.90158 13.6376686,12.525 C13.1555886,12.16344 12.5537486,12 12.0001686,12 Z M7,3 L7,4 L7.00672773,4.11662113 C7.06449284,4.61395981 7.48716416,5 8,5 C8.51283584,5 8.93550716,4.61395981 8.99327227,4.11662113 L9,4 L9,3 L15,3 L15,4 L15.0067277,4.11662113 C15.0644928,4.61395981 15.4871642,5 16,5 C16.5128358,5 16.9355072,4.61395981 16.9932723,4.11662113 L17,4 L17,3 L19,3 C20.6568542,3 22,4.34314575 22,6 L22,8 L2,8 L2,6 C2,4.34314575 3.34314575,3 5,3 L7,3 Z M16,1 C16.5128358,1 16.9355072,1.38604019 16.9932723,1.88337887 L17,2 L17,3 L15,3 L15,2 C15,1.44771525 15.4477153,1 16,1 Z M8,1 C8.51283584,1 8.93550716,1.38604019 8.99327227,1.88337887 L9,2 L9,3 L7,3 L7,2 C7,1.44771525 7.44771525,1 8,1 Z"/>
</svg>

<svg xmlns="http://www.w3.org/2000/svg" viewBox="0 0 24 24">
  <path d="M22 10v10a3 3 0 0 1-3 3H5a3 3 0 0 1-3-3V10h20zm-10 8a1 1 0 1 0 0 2 1 1 0 0 0 0-2zm0-6c-.63 0-1.15.16-1.57.44a2.5 2.5 0 0 0-.85.97.75.75 0 1 0 1.34.68 1 1 0 0 1 .34-.4c.14-.1.37-.19.74-.19.28 0 .55.09.74.22.16.13.26.29.26.53 0 .18-.04.26-.08.32a.96.96 0 0 1-.27.24l-.26.16-.32.2c-.22.15-.49.36-.7.66a.75.75 0 0 0 1.25.84.96.96 0 0 1 .28-.25l.26-.16.32-.2a2.03 2.03 0 0 0 1.02-1.81 2.1 2.1 0 0 0-.86-1.72A2.76 2.76 0 0 0 12 12zM7 3v1.12a1 1 0 0 0 2 0V3h6v1.12a1 1 0 0 0 2 0V3h2a3 3 0 0 1 3 3v2H2V6a3 3 0 0 1 3-3h2zm9-2a1 1 0 0 1 1 .88V3h-2V2a1 1 0 0 1 1-1zM8 1a1 1 0 0 1 1 .88V3H7V2a1 1 0 0 1 1-1z"/>
</svg>
